X: 6472
T: Cat In The Corner, The
R: jig
M: 6/8
K: Dmixolydian
|:F2F DFA|dAF AFD|E2E CEG|cGE GEC|
F2F DFA|dAF AFD|G2G EFG|1 AFD D2E:|2 AFD D2e||
|:f2d d^cd|f2d def|e2c cBc|ece age|
[1 f2d d^cd|f2d def|g2g efg|afd d2e:|
[2 afa geg|fdf e^cA|G2G EFG|AFD D2E||

